X:1
T:Si franchement declaires
T:Si franchement declaires
T:Pierre de Manchicourt
C:Pierre de Manchicourt
%%score [ 1 [ 2 3 ] 4 ]
L:1/8
Q:1/4=90
M:2/2
K:C
V:1 treble nm="Superius" snm="S"
V:2 treble-8 nm="Tenor 1" snm="T 1"
V:3 treble-8 nm="Tenor 2" snm="T 2"
V:4 bass nm="Bassus" snm="B"
V:1
 G4 c2 c2 | B2 G2 A2 B2 | c2 BA G2 c2- | c2 B2 A2 G2- | G2 F2 G4- | G8- | G4 z2 c2 | c2 B2 c4 | %8
w: Si fran- che-|ment de- clai- rez|vos- * * * *||* tre cueur,|_|* et|aus- si fai-|
 G4 z2 G2 | G2 G2 A2 B2- | BA A4 G2 | A4 z4 | z2 c2 c2 B2 | A2 A2 GA Bc | d2 e4 d2- | d2 c4 B2 | %16
w: re ce|qui se- cret il|_ _ pen- *|se,|tost ces- se-|roit ma pai- * * *|* n'et ma-|* * dou-|
 c8 | z2 c4 B2 | A2 G2 z2 d2 | c2 B2 A2 c2 | B2 G2 AB cA | B2 A4 G2- | G2 F2 GA BG | A2 G2 z2 c2- | %24
w: leur,|et mon|la- beur, et|mon la- beur en|au- roit re- * * *|* com- pen-||* se, et|
 c2 B2 A2 G2 | z2 d2 c2 B2 | A2 c2 B2 G2 | AB cA B2 A2- | A2 G4 F2 | G8 |] %30
w: _ mon la- beur|et mon la-|beur en au- roit|re- * * * * com|_ pen- *|se.|
V:2
 e4 g4- | g2 fe f2 g2 | f4 e2 c2 | d2 e2 fe dc | d4 z2 e2 | e2 d2 e4 | d4 z2 g2 | g2 g2 c2 e2- | %8
w: Si fran-|* che- * ment de-|clai- rez vos-|* * tre _ _ _|cueur, et|aus- si fai-|re ce|qui se- cret il|
 e2 dc B2 e2 | d2 g2 f2 e2- | e2 d2 e4- | e4 g2 g2 | f2 e4 d2 | f2 f2 e2 d2 | gfed c2 d2 | %15
w: _ pen- * * *||* * se,|_ tost ces-|se- roit ma|pai- n'et ma _|_ _ _ _ _ _|
 e2 f2 g4 | z2 g2 f2 e2 | d2 c2 g4 | e2 g4 f2 | e3 d c4 | G2 g4 f2 | g2 f2 e4 | d4 z2 g2 | %23
w: * dou- leur,|et mon la-|beur en au-|roit re- com-|pen- * *|||se, et|
 f2 e2 d2 c2 | g4 e2 g2- | g2 f2 e3 d | c4 G2 g2- | g2 f2 g2 f2 | e4 d4 | d8 |] %30
w: mon la- beur en|au- roit re-|* com- pen- *||||se.|
V:3
 c4 e2 e2 | d8 | c2 d2 ed ef | g2 g2 cB AG | A4 z2 c2 | c2 B2 c4 | G2 d2 e2 e2 | d3 c/B/ AB cd | %8
w: Si fran- che-|ment|de- clai- rez _ _ _|_ vos- tre _ _ _|cueur, et|aus- si fai-|re ce qui se-|cret _ _ _ _ _ _|
 e2 e2 d2 c2 | B2 c4 B2 | c2 A2 B4 | A2 e2 e2 d2 | c3 B A2 B2 | c2 d2 B3 A | G2 g2 e2 f2- | %15
w: _ il pen- *|||se, tost ces- se-|roit _ _ ma|pai- n'et ma _|_ dou- * *|
 fe c2 d4 | c4 z4 | g2 f2 e2 d2 | z2 c2 B2 A2 | G2 g2 f2 e2 | d2 e4 dc | d3 c B2 c2 | A4 G4 | %23
w: |leur,|et mon la- beur,|en mon la-|beur en au- roit|re- com- * *|pen- * * *|* se,|
 z4 g2 f2 | e2 d2 z2 c2 | B2 A2 G2 g2 | f2 e2 d2 e2- | e2 dc d3 c | B2 c2 A4 | G8 |] %30
w: et mon|la- beur, et|mon la- beur au-|roit re- com- pen-|||se.|
V:4
 C,4 C,2 C,2 | G,4 z2 G,2 | A,2 B,2 C2 B,A, | G,F, G,2 F,2 G,2 | D,E, F,D, E,2 C,2 | G,4 z2 C2 | %6
w: Si fran- che-|ment de-|clai- rez vos- * *||* * * * * tre|cueur, et|
"^#" C2 B,2 C4 | G,4 z2 C,2 | C,D, E,F, G,2 C,2 | G,2 E,2 F,2 G,2 | A,2 F,2 E,4 | z2 C2 C2 B,2 | %12
w: aus- si fai-|re ce|qui _ _ _ se- cret|il pen- * *|* * se,|tost ces- se-|
 A,G,A,B, C2 G,2 | F,2 D,2 E,F, G,A, | B,2 C4 B,2 | A,4 G,4 | C,4 z2 C2 | B,2 A,2 G,4 | %18
w: roit _ _ _ _ ma|pai- n'et ma _ _ _|_ dou- *||leur, et|mon la- beur|
 C,4 D,2 D,2 | E,4 F,G,A,G,/A,/ | B,2 C2 A,4 | G,2 D,2 E,2 C,2 | D,4 G,4 | z2 C2 B,2 A,2 | %24
w: en au- roit|re- com- * * * *|* * pen-||* se,|et mon la-|
"^#" G,4 C,4 | D,2 D,2 E,4 | F,G,A,G,/A,/ B,2 C2 | A,4 G,2 D,2 | E,2 C,2 D,4 | G,8 |] %30
w: beur en|au- roit re-|com- * * * * * pen-|||se.|

